humanity-icon-theme/Humanity/status/48/aptdaemon-add.svg

<?xml version="1.0" encoding="UTF-8" standalone="no"?>
<!-- Created with Inkscape (http://www.inkscape.org/) -->

<svg
   xmlns:svg="http://www.w3.org/2000/svg"
   xmlns="http://www.w3.org/2000/svg"
   xmlns:xlink="http://www.w3.org/1999/xlink"
   version="1.0"
   width="48"
   height="48"
   id="svg3263">
  <defs
     id="defs3265">
    <radialGradient
       cx="5"
       cy="41.5"
       r="5"
       fx="5"
       fy="41.5"
       id="radialGradient3314"
       xlink:href="#linearGradient3681"
       gradientUnits="userSpaceOnUse"
       gradientTransform="matrix(0.5938225,0,0,1.5366531,41.140892,-103.93618)" />
    <linearGradient
       id="linearGradient3703">
      <stop
         id="stop3705"
         style="stop-color:#000000;stop-opacity:0"
         offset="0" />
      <stop
         id="stop3711"
         style="stop-color:#000000;stop-opacity:1"
         offset="0.5" />
      <stop
         id="stop3707"
         style="stop-color:#000000;stop-opacity:0"
         offset="1" />
    </linearGradient>
    <linearGradient
       x1="17.554192"
       y1="46.000275"
       x2="17.554192"
       y2="34.999718"
       id="linearGradient3312"
       xlink:href="#linearGradient3703"
       gradientUnits="userSpaceOnUse"
       gradientTransform="matrix(1.7570316,0,0,1.3969574,-17.394014,-16.411698)" />
    <linearGradient
       id="linearGradient3681">
      <stop
         id="stop3683"
         style="stop-color:#000000;stop-opacity:1"
         offset="0" />
      <stop
         id="stop3685"
         style="stop-color:#000000;stop-opacity:0"
         offset="1" />
    </linearGradient>
    <radialGradient
       cx="5"
       cy="41.5"
       r="5"
       fx="5"
       fy="41.5"
       id="radialGradient3310"
       xlink:href="#linearGradient3681"
       gradientUnits="userSpaceOnUse"
       gradientTransform="matrix(0.5938225,0,0,1.5366531,-6.6594735,-103.93618)" />
    <linearGradient
       id="linearGradient3295">
      <stop
         id="stop3297"
         style="stop-color:#c9af8b;stop-opacity:1"
         offset="0" />
      <stop
         id="stop3299"
         style="stop-color:#ad8757;stop-opacity:1"
         offset="0.23942046" />
      <stop
         id="stop3301"
         style="stop-color:#c2a57f;stop-opacity:1"
         offset="0.27582464" />
      <stop
         id="stop3303"
         style="stop-color:#9d7d53;stop-opacity:1"
         offset="1" />
    </linearGradient>
    <linearGradient
       x1="15.464298"
       y1="7.9756851"
       x2="15.464298"
       y2="45.04248"
       id="linearGradient3293"
       xlink:href="#linearGradient3295"
       gradientUnits="userSpaceOnUse" />
    <linearGradient
       id="linearGradient3199">
      <stop
         id="stop3201"
         style="stop-color:#dac197;stop-opacity:1"
         offset="0" />
      <stop
         id="stop3203"
         style="stop-color:#c1a581;stop-opacity:1"
         offset="0.23942046" />
      <stop
         id="stop3205"
         style="stop-color:#dac197;stop-opacity:1"
         offset="0.27582464" />
      <stop
         id="stop3207"
         style="stop-color:#a68b60;stop-opacity:1"
         offset="1" />
    </linearGradient>
    <linearGradient
       x1="24.822832"
       y1="15.377745"
       x2="24.996943"
       y2="37.27668"
       id="linearGradient3197"
       xlink:href="#linearGradient3199"
       gradientUnits="userSpaceOnUse"
       gradientTransform="matrix(1.2822251,0,0,1.5572619,-6.0701918,-15.290756)" />
    <linearGradient
       id="linearGradient3219">
      <stop
         id="stop3225"
         style="stop-color:#cbad7a;stop-opacity:1"
         offset="0" />
      <stop
         id="stop3227"
         style="stop-color:#cbae7d;stop-opacity:0"
         offset="1" />
    </linearGradient>
    <radialGradient
       cx="24"
       cy="31"
       r="20"
       fx="24"
       fy="31"
       id="radialGradient3217"
       xlink:href="#linearGradient3219"
       gradientUnits="userSpaceOnUse"
       gradientTransform="matrix(1.6547439,0,0,0.65,-15.713854,10.85)" />
    <linearGradient
       id="linearGradient4559">
      <stop
         id="stop4561"
         style="stop-color:#ffffff;stop-opacity:0"
         offset="0" />
      <stop
         id="stop4563"
         style="stop-color:#ffffff;stop-opacity:0"
         offset="1" />
    </linearGradient>
    <linearGradient
       x1="23.451576"
       y1="30.554907"
       x2="43.00663"
       y2="45.934479"
       id="linearGradient2659"
       xlink:href="#linearGradient4559"
       gradientUnits="userSpaceOnUse"
       gradientTransform="matrix(1.2822251,0,0,1.1746872,-6.0701918,-5.3031677)" />
    <linearGradient
       id="linearGradient3827">
      <stop
         id="stop3829"
         style="stop-color:#ffffff;stop-opacity:1"
         offset="0" />
      <stop
         id="stop4295"
         style="stop-color:#ffffff;stop-opacity:1"
         offset="0.3021296" />
      <stop
         id="stop4293"
         style="stop-color:#ffffff;stop-opacity:0.6901961"
         offset="0.34361121" />
      <stop
         id="stop3832"
         style="stop-color:#ffffff;stop-opacity:0"
         offset="1" />
    </linearGradient>
    <linearGradient
       x1="26"
       y1="22"
       x2="26"
       y2="8"
       id="linearGradient3834"
       xlink:href="#linearGradient3827"
       gradientUnits="userSpaceOnUse" />
    <linearGradient
       id="linearGradient3275">
      <stop
         id="stop3277"
         style="stop-color:#ffffff;stop-opacity:0"
         offset="0" />
      <stop
         id="stop3283"
         style="stop-color:#ffffff;stop-opacity:1"
         offset="0.16682135" />
      <stop
         id="stop3285"
         style="stop-color:#ffffff;stop-opacity:1"
         offset="0.83237511" />
      <stop
         id="stop3279"
         style="stop-color:#ffffff;stop-opacity:0"
         offset="1" />
    </linearGradient>
    <linearGradient
       x1="44.994774"
       y1="17.5"
       x2="3.0052247"
       y2="17.5"
       id="linearGradient3281"
       xlink:href="#linearGradient3275"
       gradientUnits="userSpaceOnUse"
       spreadMethod="reflect" />
    <linearGradient
       id="linearGradient3242-7">
      <stop
         id="stop3244-5"
         style="stop-color:#eef87e;stop-opacity:1"
         offset="0" />
      <stop
         id="stop3246-9"
         style="stop-color:#cde34f;stop-opacity:1"
         offset="0.26238" />
      <stop
         id="stop3248-7"
         style="stop-color:#93b723;stop-opacity:1"
         offset="0.66093999" />
      <stop
         id="stop3250-8"
         style="stop-color:#5a7e0d;stop-opacity:1"
         offset="1" />
    </linearGradient>
    <linearGradient
       id="linearGradient2490-3">
      <stop
         id="stop2492-3"
         style="stop-color:#365f0e;stop-opacity:1"
         offset="0" />
      <stop
         id="stop2494-8"
         style="stop-color:#84a718;stop-opacity:1"
         offset="1" />
    </linearGradient>
    <linearGradient
       x1="22.368837"
       y1="8.0323315"
       x2="22.368837"
       y2="38.274109"
       id="linearGradient5530"
       xlink:href="#linearGradient3943"
       gradientUnits="userSpaceOnUse"
       gradientTransform="matrix(0.59881541,0,0,0.59520313,23.605196,23.21913)" />
    <linearGradient
       id="linearGradient3943">
      <stop
         id="stop3945"
         style="stop-color:#ffffff;stop-opacity:1"
         offset="0" />
      <stop
         id="stop3947"
         style="stop-color:#ffffff;stop-opacity:0"
         offset="1" />
    </linearGradient>
    <radialGradient
       cx="69.447609"
       cy="51.694645"
       r="31.000002"
       fx="69.447609"
       fy="51.694645"
       id="radialGradient3245"
       xlink:href="#linearGradient3242-7"
       gradientUnits="userSpaceOnUse"
       gradientTransform="matrix(0,0.67923629,-0.73892459,0,72.902805,-17.489952)" />
    <linearGradient
       x1="72.421684"
       y1="123.19138"
       x2="72.421684"
       y2="52.809361"
       id="linearGradient3247"
       xlink:href="#linearGradient2490-3"
       gradientUnits="userSpaceOnUse"
       gradientTransform="matrix(0.28214379,0,0,0.28445169,12.171345,11.958204)" />
  </defs>
  <g
     id="layer1">
    <g
       transform="matrix(0.9926623,0,0,0.9761474,0.2751901,1.2929634)"
       id="g3305"
       style="opacity:0.4;display:inline">
      <rect
         width="2.9601951"
         height="15.366531"
         x="-3.6903627"
         y="-47.848343"
         transform="scale(-1,-1)"
         id="rect2484"
         style="fill:url(#radialGradient3310);fill-opacity:1;stroke:none" />
      <rect
         width="40.41172"
         height="15.366531"
         x="3.6903627"
         y="32.481812"
         id="rect2486"
         style="fill:url(#linearGradient3312);fill-opacity:1;stroke:none" />
      <rect
         width="2.9601951"
         height="15.366531"
         x="44.110001"
         y="-47.848343"
         transform="scale(1,-1)"
         id="rect3444"
         style="fill:url(#radialGradient3314);fill-opacity:1;stroke:none;display:inline" />
    </g>
    <path
       d="m 9.010725,8.5 29.497723,0 c 1.721985,0 2.496922,-0.2865505 2.991552,1 l 3.001734,8 0,25.673912 c 0,1.553304 0.10293,1.315976 -1.619063,1.315976 l -37.7653422,0 c -1.7219924,0 -1.6190635,0.237328 -1.6190635,-1.315976 L 3.4982653,17.5 6.5,9.5 c 0.4808316,-1.2605622 0.7887325,-1 2.510725,-1 z"
       id="path2488"
       style="fill:url(#linearGradient3197);fill-opacity:1;fill-rule:nonzero;stroke:url(#linearGradient3293);stroke-width:0.99420077;stroke-linecap:round;stroke-linejoin:miter;stroke-miterlimit:4;stroke-opacity:1;stroke-dasharray:none;stroke-dashoffset:0;marker:none;visibility:visible;display:block;overflow:visible" />
    <rect
       width="40"
       height="26"
       x="4"
       y="18"
       id="rect3209"
       style="fill:url(#radialGradient3217);fill-opacity:1;fill-rule:evenodd;stroke:none;stroke-width:1.69999993;marker:none;visibility:visible;display:inline;overflow:visible;enable-background:accumulate" />
    <path
       d="m 9.948194,9.5129459 27.652872,0 c 1.614293,0 2.61338,0.5565361 3.289521,2.0860281 l 2.32894,6.419721 0,23.144557 c 0,1.460676 -0.818759,2.196085 -2.433056,2.196085 l -33.7332031,0 c -1.6142934,0 -2.2727761,-0.808827 -2.2727761,-2.269504 l 0,-23.071138 2.2538109,-6.55736 C 7.4850649,10.275943 8.3338968,9.5129459 9.948194,9.5129459 z"
       id="path2490"
       style="opacity:0.50549454;fill:none;stroke:url(#linearGradient2659);stroke-width:0.74211526;stroke-linecap:butt;stroke-linejoin:miter;stroke-miterlimit:4;stroke-opacity:1;stroke-dasharray:none;stroke-dashoffset:0;marker:none;visibility:visible;display:block;overflow:visible" />
    <path
       d="m 22,8 c 1.333333,0 2.666667,0 4,0 0,4.666667 0,9.333333 0,14 -0.393729,0 -0.787458,0 -1.181187,0 -0.403125,0 -0.80625,0 -1.209375,0 -0.324529,0 -0.649057,0 -0.973585,0 C 22.423902,22 22.211951,22 22,22 22,17.333333 22,12.666667 22,8 z"
       id="rect3326"
       style="opacity:0.4;fill:url(#linearGradient3834);fill-opacity:1;fill-rule:nonzero;stroke:none;stroke-width:1;marker:none;visibility:visible;display:inline;overflow:visible;enable-background:accumulate" />
    <path
       d="m 3.5052248,17.5 40.9895502,0"
       id="path3273"
       style="opacity:0.3;fill:none;stroke:url(#linearGradient3281);stroke-width:1px;stroke-linecap:square;stroke-linejoin:miter;stroke-opacity:1;display:inline" />
  </g>
  <path
     d="m 33.500001,33.5 0,-6.02737 7,0 0,6.02737 6.007286,0 0,7 -6.007286,0 0,6.007286 -7,0 0,-6.007286 -6.007287,0 0,-7 6.007287,0 z"
     id="path2262"
     style="color:#000000;fill:url(#radialGradient3245);fill-opacity:1;fill-rule:nonzero;stroke:url(#linearGradient3247);stroke-width:0.98542732;stroke-linecap:round;stroke-linejoin:round;stroke-miterlimit:4;stroke-opacity:1;stroke-dasharray:none;stroke-dashoffset:0;marker:none;visibility:visible;display:inline;overflow:visible;enable-background:accumulate" />
  <path
     d="m 34.500001,34.5 0,-6.000001 5,0 0,6.000001 6,0 0,5 -6,0 0,6 -5,0 0,-6 -6,0 0,-5 6,0 z"
     id="path2272"
     style="opacity:0.4;fill:none;stroke:url(#linearGradient5530);stroke-width:1;stroke-linecap:butt;stroke-linejoin:miter;stroke-miterlimit:4;stroke-opacity:1;stroke-dasharray:none;display:inline" />
</svg>

<?xml version="1.0" encoding="UTF-8" standalone="no"?>
<!-- Created with Inkscape (http://www.inkscape.org/) -->
<svg
   xmlns:svg="http://www.w3.org/2000/svg"
   xmlns="http://www.w3.org/2000/svg"
   xmlns:xlink="http://www.w3.org/1999/xlink"
   version="1.0"
   width="48"
   height="48"
   id="svg3307">
  <defs
     id="defs3309">
    <linearGradient
       id="linearGradient3275">
      <stop
         id="stop3277"
         style="stop-color:#ffffff;stop-opacity:0"
         offset="0" />
      <stop
         id="stop3283"
         style="stop-color:#ffffff;stop-opacity:1"
         offset="0.245" />
      <stop
         id="stop3285"
         style="stop-color:#ffffff;stop-opacity:1"
         offset="0.77350003" />
      <stop
         id="stop3279"
         style="stop-color:#ffffff;stop-opacity:0"
         offset="1" />
    </linearGradient>
    <linearGradient
       x1="44.994774"
       y1="17.5"
       x2="3.0052247"
       y2="17.5"
       id="linearGradient2815"
       xlink:href="#linearGradient3275"
       gradientUnits="userSpaceOnUse"
       spreadMethod="reflect" />
    <linearGradient
       id="linearGradient3827">
      <stop
         id="stop3829"
         style="stop-color:#ffffff;stop-opacity:1"
         offset="0" />
      <stop
         id="stop4295"
         style="stop-color:#ffffff;stop-opacity:1"
         offset="0.3021296" />
      <stop
         id="stop4293"
         style="stop-color:#ffffff;stop-opacity:0.6901961"
         offset="0.34361121" />
      <stop
         id="stop3832"
         style="stop-color:#ffffff;stop-opacity:0"
         offset="1" />
    </linearGradient>
    <linearGradient
       x1="26"
       y1="22"
       x2="26"
       y2="8"
       id="linearGradient2813"
       xlink:href="#linearGradient3827"
       gradientUnits="userSpaceOnUse" />
    <linearGradient
       id="linearGradient4559">
      <stop
         id="stop4561"
         style="stop-color:#ffffff;stop-opacity:0"
         offset="0" />
      <stop
         id="stop4563"
         style="stop-color:#ffffff;stop-opacity:0"
         offset="1" />
    </linearGradient>
    <linearGradient
       x1="23.451576"
       y1="30.554907"
       x2="43.00663"
       y2="45.934479"
       id="linearGradient2811"
       xlink:href="#linearGradient4559"
       gradientUnits="userSpaceOnUse"
       gradientTransform="matrix(1.2822251,0,0,1.1746872,-6.0701918,-5.3031677)" />
    <linearGradient
       id="linearGradient3295">
      <stop
         id="stop3297"
         style="stop-color:#c9af8b;stop-opacity:1"
         offset="0" />
      <stop
         id="stop3299"
         style="stop-color:#ad8757;stop-opacity:1"
         offset="0.23942046" />
      <stop
         id="stop3301"
         style="stop-color:#c2a57f;stop-opacity:1"
         offset="0.27582464" />
      <stop
         id="stop3303"
         style="stop-color:#9d7d53;stop-opacity:1"
         offset="1" />
    </linearGradient>
    <linearGradient
       x1="15.464298"
       y1="7.9756851"
       x2="15.464298"
       y2="45.04248"
       id="linearGradient2809"
       xlink:href="#linearGradient3295"
       gradientUnits="userSpaceOnUse" />
    <linearGradient
       id="linearGradient3199">
      <stop
         id="stop3201"
         style="stop-color:#dac197;stop-opacity:1"
         offset="0" />
      <stop
         id="stop3203"
         style="stop-color:#c1a581;stop-opacity:1"
         offset="0.23942046" />
      <stop
         id="stop3205"
         style="stop-color:#dbc298;stop-opacity:1"
         offset="0.27582464" />
      <stop
         id="stop3207"
         style="stop-color:#a68b60;stop-opacity:1"
         offset="1" />
    </linearGradient>
    <linearGradient
       x1="24.822832"
       y1="15.377745"
       x2="24.996943"
       y2="37.27668"
       id="linearGradient2807"
       xlink:href="#linearGradient3199"
       gradientUnits="userSpaceOnUse"
       gradientTransform="matrix(1.2822251,0,0,1.5572619,-6.0701918,-15.290756)" />
    <radialGradient
       cx="5"
       cy="41.5"
       r="5"
       fx="5"
       fy="41.5"
       id="radialGradient2805"
       xlink:href="#linearGradient3681"
       gradientUnits="userSpaceOnUse"
       gradientTransform="matrix(0.5938225,0,0,1.5366531,41.140892,-103.93618)" />
    <linearGradient
       id="linearGradient3703">
      <stop
         id="stop3705"
         style="stop-color:#000000;stop-opacity:0"
         offset="0" />
      <stop
         id="stop3711"
         style="stop-color:#000000;stop-opacity:1"
         offset="0.5" />
      <stop
         id="stop3707"
         style="stop-color:#000000;stop-opacity:0"
         offset="1" />
    </linearGradient>
    <linearGradient
       x1="17.554192"
       y1="46.000275"
       x2="17.554192"
       y2="34.999718"
       id="linearGradient2803"
       xlink:href="#linearGradient3703"
       gradientUnits="userSpaceOnUse"
       gradientTransform="matrix(1.7570316,0,0,1.3969574,-17.394014,-16.411698)" />
    <linearGradient
       id="linearGradient3681">
      <stop
         id="stop3683"
         style="stop-color:#000000;stop-opacity:1"
         offset="0" />
      <stop
         id="stop3685"
         style="stop-color:#000000;stop-opacity:0"
         offset="1" />
    </linearGradient>
    <radialGradient
       cx="5"
       cy="41.5"
       r="5"
       fx="5"
       fy="41.5"
       id="radialGradient2801"
       xlink:href="#linearGradient3681"
       gradientUnits="userSpaceOnUse"
       gradientTransform="matrix(0.5938225,0,0,1.5366531,-6.6594735,-103.93618)" />
    <linearGradient
       id="linearGradient2264">
      <stop
         id="stop2266"
         style="stop-color:#d7e866;stop-opacity:1"
         offset="0" />
      <stop
         id="stop2268"
         style="stop-color:#8cab2a;stop-opacity:1"
         offset="1" />
    </linearGradient>
    <linearGradient
       x1="2.4454224"
       y1="18.339964"
       x2="2.4454224"
       y2="32.695831"
       id="linearGradient2487"
       xlink:href="#linearGradient2264"
       gradientUnits="userSpaceOnUse"
       gradientTransform="matrix(1.1827466,0,0,1.1756122,6.758282,5.9395083)" />
    <linearGradient
       id="linearGradient3245">
      <stop
         id="stop3247"
         style="stop-color:#ffffff;stop-opacity:1"
         offset="0" />
      <stop
         id="stop3249"
         style="stop-color:#ffffff;stop-opacity:0"
         offset="1" />
    </linearGradient>
    <linearGradient
       x1="35"
       y1="20"
       x2="35"
       y2="48.071339"
       id="linearGradient3292"
       xlink:href="#linearGradient3245"
       gradientUnits="userSpaceOnUse" />
  </defs>
  <g
     id="layer1">
    <g
       transform="translate(6.1178597e-7,-0.9999989)"
       id="g2791">
      <g
         transform="matrix(0.9926623,0,0,0.9761474,0.2751901,1.2929634)"
         id="g3305"
         style="opacity:0.4;display:inline">
        <rect
           width="2.9601951"
           height="15.366531"
           x="-3.6903627"
           y="-47.848343"
           transform="scale(-1,-1)"
           id="rect2484"
           style="opacity:1;fill:url(#radialGradient2801);fill-opacity:1;stroke:none;stroke-width:1;stroke-linecap:round;stroke-linejoin:miter;stroke-miterlimit:4;stroke-dasharray:none;stroke-dashoffset:1.20000057;stroke-opacity:1" />
        <rect
           width="40.41172"
           height="15.366531"
           x="3.6903627"
           y="32.481812"
           id="rect2486"
           style="opacity:1;fill:url(#linearGradient2803);fill-opacity:1;stroke:none;stroke-width:1;stroke-linecap:round;stroke-linejoin:miter;stroke-miterlimit:4;stroke-dasharray:none;stroke-dashoffset:1.20000057;stroke-opacity:1" />
        <rect
           width="2.9601951"
           height="15.366531"
           x="44.110001"
           y="-47.848343"
           transform="scale(1,-1)"
           id="rect3444"
           style="opacity:1;fill:url(#radialGradient2805);fill-opacity:1;stroke:none;stroke-width:1;stroke-linecap:round;stroke-linejoin:miter;stroke-miterlimit:4;stroke-dasharray:none;stroke-dashoffset:1.20000057;stroke-opacity:1;display:inline" />
      </g>
      <path
         d="M 9.010725,8.5 L 38.508448,8.5 C 40.230433,8.5 41.00537,8.2134495 41.5,9.5 L 44.501734,17.5 L 44.501734,43.173912 C 44.501734,44.727216 44.604664,44.489888 42.882671,44.489888 L 5.1173288,44.489888 C 3.3953364,44.489888 3.4982653,44.727216 3.4982653,43.173912 L 3.4982653,17.5 L 6.5,9.5 C 6.9808316,8.2394378 7.2887325,8.5 9.010725,8.5 z"
         id="path2488"
         style="fill:url(#linearGradient2807);fill-opacity:1;fill-rule:nonzero;stroke:url(#linearGradient2809);stroke-width:0.99420077;stroke-linecap:round;stroke-linejoin:miter;marker:none;marker-start:none;marker-mid:none;marker-end:none;stroke-miterlimit:4;stroke-dasharray:none;stroke-dashoffset:0;stroke-opacity:1;visibility:visible;display:block;overflow:visible" />
      <path
         d="M 9.948194,9.5129459 L 37.601066,9.5129459 C 39.215359,9.5129459 40.214446,10.069482 40.890587,11.598974 L 43.219527,18.018695 L 43.219527,41.163252 C 43.219527,42.623928 42.400768,43.359337 40.786471,43.359337 L 7.0532679,43.359337 C 5.4389745,43.359337 4.7804918,42.55051 4.7804918,41.089833 L 4.7804918,18.018695 L 7.0343027,11.461335 C 7.4850649,10.275943 8.3338968,9.5129459 9.948194,9.5129459 z"
         id="path2490"
         style="opacity:0.50549454;fill:none;fill-opacity:1;fill-rule:nonzero;stroke:url(#linearGradient2811);stroke-width:0.74211526;stroke-linecap:butt;stroke-linejoin:miter;marker:none;marker-start:none;marker-mid:none;marker-end:none;stroke-miterlimit:4;stroke-dasharray:none;stroke-dashoffset:0;stroke-opacity:1;visibility:visible;display:block;overflow:visible" />
      <path
         d="M 22,8 C 23.333333,8 24.666667,8 26,8 C 26,12.666667 26,17.333333 26,22 C 25.606271,22 25.212542,22 24.818813,22 C 24.415688,22 24.012563,22 23.609438,22 C 23.284909,22 22.960381,22 22.635853,22 C 22.423902,22 22.211951,22 22,22 C 22,17.333333 22,12.666667 22,8 z"
         id="rect3326"
         style="opacity:0.4;fill:url(#linearGradient2813);fill-opacity:1;fill-rule:nonzero;stroke:none;stroke-width:1;stroke-linecap:square;stroke-linejoin:round;marker:none;marker-start:none;marker-mid:none;marker-end:none;stroke-miterlimit:4;stroke-dasharray:none;stroke-dashoffset:0;stroke-opacity:1;visibility:visible;display:inline;overflow:visible;enable-background:accumulate" />
      <path
         d="M 3.5052248,17.5 L 44.494775,17.5"
         id="path3273"
         style="opacity:0.4;fill:none;fill-rule:evenodd;stroke:url(#linearGradient2815);stroke-width:1px;stroke-linecap:square;stroke-linejoin:miter;stroke-opacity:1;display:inline" />
    </g>
    <path
       d="M 30.5,28.5 L 30.5,20.499999 L 39.5,20.499999 L 39.5,28.5 L 47.5,28.5 L 47.5,37.5 L 39.5,37.5 L 39.5,45.5 L 30.5,45.5 L 30.5,37.5 L 22.499999,37.5 L 22.499999,28.5 L 30.5,28.5 z"
       id="path2262"
       style="fill:url(#linearGradient2487);fill-opacity:1;fill-rule:evenodd;stroke:#699536;stroke-width:1;stroke-linecap:butt;stroke-linejoin:round;stroke-miterlimit:4;stroke-dasharray:none;stroke-opacity:1;display:inline" />
    <path
       d="M 31.5,29.5 L 31.5,21.5 L 38.5,21.5 L 38.5,29.5 L 46.5,29.5 L 46.5,36.5 L 38.5,36.5 L 38.5,44.5 L 31.5,44.5 L 31.5,36.5 L 23.5,36.5 L 23.5,29.5 L 31.5,29.5 z"
       id="path2514"
       style="opacity:0.4;fill:none;fill-opacity:1;fill-rule:evenodd;stroke:url(#linearGradient3292);stroke-width:1;stroke-linecap:butt;stroke-linejoin:round;stroke-miterlimit:4;stroke-dasharray:none;stroke-opacity:1;display:inline" />
  </g>
</svg>
